icons-rebrand/svg/audio-microphone-on-light.svg

<svg width="32" height="32" viewBox="0 0 32 32" fill="none" xmlns="http://www.w3.org/2000/svg">
<path d="M24.0019 28.5H22.0229C20.6374 28.5324 19.2931 28.027 18.2722 27.0897C17.2512 26.1525 16.6329 24.8563 16.5469 23.473C17.9035 23.3356 19.1609 22.6999 20.0759 21.6889C20.9908 20.6779 21.4982 19.3635 21.4999 18V8C21.4999 6.54131 20.9205 5.14236 19.889 4.11091C18.8576 3.07946 17.4586 2.5 15.9999 2.5C14.5412 2.5 13.1423 3.07946 12.1108 4.11091C11.0794 5.14236 10.4999 6.54131 10.4999 8V18C10.502 19.3757 11.019 20.7008 11.9492 21.7143C12.8795 22.7278 14.1555 23.3563 15.5259 23.476C15.5899 24.4902 15.8941 25.4747 16.4135 26.3483C16.9328 27.2218 17.6524 27.9593 18.5129 28.5H8.00293C7.87032 28.5 7.74314 28.5527 7.64938 28.6464C7.55561 28.7402 7.50293 28.8674 7.50293 29C7.50293 29.1326 7.55561 29.2598 7.64938 29.3536C7.74314 29.4473 7.87032 29.5 8.00293 29.5H24.0029C24.1355 29.5 24.2627 29.4473 24.3565 29.3536C24.4503 29.2598 24.5029 29.1326 24.5029 29C24.5029 28.8674 24.4503 28.7402 24.3565 28.6464C24.2627 28.5527 24.1355 28.5 24.0029 28.5H24.0019ZM11.5009 14.988V12.5H20.5009V14.988H11.5009ZM15.9999 3.5C17.193 3.50132 18.3368 3.97585 19.1804 4.81948C20.0241 5.66311 20.4986 6.80693 20.4999 8V11.5H11.4999V8C11.5013 6.80693 11.9758 5.66311 12.8194 4.81948C13.663 3.97585 14.8069 3.50132 15.9999 3.5Z" fill="#0F0F0F"/>
<path d="M11.5 15H20.5V18C20.5 19.0609 20.0786 20.0783 19.3284 20.8284C18.5783 21.5786 17.5609 22 16.5 22H15.5C14.4391 22 13.4217 21.5786 12.6716 20.8284C11.9214 20.0783 11.5 19.0609 11.5 18V15ZM11.5 11.5H20.5V12.5H11.5V11.5Z" fill="#27A17A"/>
</svg>

<svg width="32" height="32" viewBox="0 0 32 32" fill="none" xmlns="http://www.w3.org/2000/svg"><path d="M24.002 28.5h-1.979a5.361 5.361 0 0 1-5.476-5.027A5.508 5.508 0 0 0 21.5 18V8a5.5 5.5 0 0 0-11 0v10a5.505 5.505 0 0 0 5.026 5.476 6.41 6.41 0 0 0 2.987 5.024H8.003a.5.5 0 0 0 0 1h16a.5.5 0 0 0 0-1zM11.501 14.988V12.5h9v2.488h-9zM16 3.5A4.505 4.505 0 0 1 20.5 8v3.5h-9V8A4.505 4.505 0 0 1 16 3.5z" fill="#0F0F0F"/><path d="M11.5 15h9v3a4 4 0 0 1-4 4h-1a4 4 0 0 1-4-4v-3zM11.5 11.5h9v1h-9v-1z" fill="#27A17A"/></svg>
